actions/16/view-financial-account-delete.svg

<svg viewBox="0 0 16 16" xmlns="http://www.w3.org/2000/svg">
  <style type="text/css" id="current-color-scheme">
    .ColorScheme-Text {
      color:#eff0f1;
    }
    .ColorScheme-NegativeText {
      color:#da4453;
    }
  </style>
<path
    d="m3 2v6h-2v1h8v-1h-5v-5h10v5h1v-6zm2 2v1h4v-1zm0 2v1h3v-1zm-4 4v4h8v-4zm5 1h2v2h-2zm-4 1h1v1h-1zm2 0h1v1h-1z"
    style="fill:currentColor;fill-opacity:1;stroke:none"
    class="ColorScheme-Text"
    />
<path
    d="M 10 4 L 10 5 L 13 5 L 13 4 L 10 4 z M 10.707031 9 L 10 9.7070312 L 11.792969 11.5 L 10 13.292969 L 10.707031 14 L 12.5 12.207031 L 14.292969 14 L 15 13.292969 L 13.207031 11.5 L 15 9.7070312 L 14.292969 9 L 12.5 10.792969 L 10.707031 9 z "
    style="fill:currentColor;fill-opacity:1;stroke:none"
    class="ColorScheme-NegativeText"
    />
</svg>

<svg viewBox="0 0 16 16" xmlns="http://www.w3.org/2000/svg">
  <style type="text/css" id="current-color-scheme">.ColorScheme-Text {color:#fcfcfc;}.ColorScheme-NegativeText {color:#da4453;}</style>
<path
    d="M 5,2 C 3,2 3,4 3,4 V 8 H 1 V 9 H 9 V 8 H 4 L 4,4 c 0,0 0,-1 1,-1 1,0 7,0 8,0 1,0 1,1 1,1 v 4 h 1 V 4 C 15,4 15,2 13,2 11,2 7,2 5,2 Z M 5,4 V 5 H 9 V 4 Z M 5,6 V 7 H 8 V 6 Z m -4,4 v 4 h 8 v -4 z m 5,1 h 2 v 2 H 6 Z m -4,1 h 1 v 1 H 2 Z m 2,0 h 1 v 1 H 4 Z"
    style="fill:currentColor;fill-opacity:1;stroke:none"
    class="ColorScheme-Text"
    />
<path
    d="M 10 4 L 10 5 L 13 5 L 13 4 L 10 4 z M 10.707031 9 L 10 9.7070312 L 11.792969 11.5 L 10 13.292969 L 10.707031 14 L 12.5 12.207031 L 14.292969 14 L 15 13.292969 L 13.207031 11.5 L 15 9.7070312 L 14.292969 9 L 12.5 10.792969 L 10.707031 9 z "
    style="fill:currentColor;fill-opacity:1;stroke:none"
    class="ColorScheme-NegativeText"
    />
</svg>
